X:1
T:Pottsville, SM
T:Pottsville, SM
T:Philip Paul Bliss, 1871
T:Public Domain Courtesy of the Cyber Hymnal™
C:Philip Paul Bliss, 1871
Z:Public Domain
Z:Courtesy of the Cyber Hymnal™
%%score ( 1 2 ) ( 3 4 )
L:1/8
Q:1/4=95
M:6/8
K:Ab
V:1 treble 
V:2 treble 
V:3 bass 
V:4 bass 
V:1
 [CE][DF][EG] [FA]2 [DF] | [CE]6 | E[EF]E [EB]2 [Ec] | [EB]6 | [=Ec][Ec][Ec] [Ec]2 [EB] | %5
 [FA]2 [CF] [DF]3 |"^riten." [CE][DE]E E2 [B,E] | [CE]6 |] %8
V:2
 x6 | x6 | EE x4 | x6 | x6 | x6 | x2 E (DC) x | x6 |] %8
V:3
 [A,,A,][A,,A,][A,,A,] [A,,A,]2 [A,,A,] | [A,,A,]6 | [E,G,][E,A,][E,G,] [E,G,]2 [E,A,] | [E,G,]6 | %4
 [C,G,][C,G,][C,G,] (G,C)[C,D] | [F,C]2 [F,A,] [D,A,]3 | [E,A,][E,B,][E,C] (B,A,)[E,G,] | %7
 [A,,A,]6 |] %8
V:4
 x6 | x6 | x6 | x6 | x3 C,2 x | x6 | x3 E,2 x | x6 |] %8

